storage/app/icons/phosphoricons/bold/columns-bold.svg

<svg xmlns="http://www.w3.org/2000/svg" fill="currentColor" viewBox="0 0 256 256"><path d="M100 28H64a20 20 0 0 0-20 20v160a20 20 0 0 0 20 20h36a20 20 0 0 0 20-20V48a20 20 0 0 0-20-20m-4 176H68V52h28Zm96-176h-36a20 20 0 0 0-20 20v160a20 20 0 0 0 20 20h36a20 20 0 0 0 20-20V48a20 20 0 0 0-20-20m-4 176h-28V52h28Z"/></svg>

<svg xmlns="http://www.w3.org/2000/svg" viewBox="0 0 256 256" fill="currentColor"><path d="M100,28H64A20,20,0,0,0,44,48V208a20,20,0,0,0,20,20h36a20,20,0,0,0,20-20V48A20,20,0,0,0,100,28ZM96,204H68V52H96ZM192,28H156a20,20,0,0,0-20,20V208a20,20,0,0,0,20,20h36a20,20,0,0,0,20-20V48A20,20,0,0,0,192,28Zm-4,176H160V52h28Z"/></svg>
